X: 1
T: Jump at the Sun
C: John Kirkpatrick
M: 6/8
L: 1/8
R: Jig
K: Em
Z: ABC transcription by Verge Roller
r: 32
|: "Em" EGB ^A2 B | "Em" EGB ^A2B | "Em" eBB eBB | "Em" BAG "B7" F3 |
"Em" EGB ^A2 B| "Em" EGB ^A2 B| "Em"eBB "Am"cBA | "B7" G2 F "Em" E3 :|
|: "Em"e2 e gfe | "B7" f2 f agf | "Em" gfe gfe | "B7" .f2  B c2 B |
"Em"e2 e gfe | "B7" f2 f agf | "Em" eBB "Am" cBA | "B7" G2 F "Em" E3 :|
